logo/immutable.svg

<?xml version="1.0" encoding="UTF-8" standalone="no"?>
<svg width="512px" height="73px" viewBox="0 0 512 73" version="1.1" xmlns="http://www.w3.org/2000/svg" xmlns:xlink="http://www.w3.org/1999/xlink" preserveAspectRatio="xMidYMid">
	<g>
		<path d="M0,0 L23.7226667,0 L23.7226667,70.144 L0,70.144 L0,0 Z M31.0613333,0 L49.4933333,0 L67.7546667,26.9653333 L86.016,0 L104.618667,0 L104.618667,70.144 L82.0906667,70.144 L82.0906667,44.8853333 L67.7546667,65.8773333 L53.4186667,44.8853333 L53.4186667,70.144 L31.0613333,70.144 L31.0613333,0 Z M111.786667,0 L130.389333,0 L148.48,26.9653333 L166.741333,0 L185.344,0 L185.344,70.144 L162.816,70.144 L162.816,44.8853333 L148.48,66.048 L134.144,45.056 L134.144,70.3146667 L111.786667,70.3146667 L111.786667,0 Z M219.477333,72.0213333 C215.04,72.0213333 211.114667,71.5093333 207.530667,70.3146667 C203.946667,69.12 200.874667,67.584 198.314667,65.1946667 C195.754667,62.976 193.877333,60.0746667 192.512,56.6613333 C191.146667,53.248 190.464,49.152 190.464,44.544 L190.464,0 L212.821333,0 L212.821333,43.6906667 C212.821333,46.08 213.333333,47.9573333 214.357333,49.3226667 C215.381333,50.688 217.088,51.2 219.477333,51.2 C221.866667,51.2 223.573333,50.5173333 224.597333,49.3226667 C225.621333,47.9573333 226.133333,46.08 226.133333,43.6906667 L226.133333,0 L248.661333,0 L248.661333,44.544 C248.661333,49.152 247.978667,53.248 246.613333,56.6613333 C245.248,60.0746667 243.2,62.976 240.64,65.1946667 C238.08,67.4133333 235.008,69.12 231.424,70.3146667 C227.84,71.3386667 223.914667,72.0213333 219.477333,72.0213333 Z M265.216,18.432 L252.245333,18.432 L252.245333,0 L301.226667,0 L301.226667,18.432 L288.256,18.432 L288.256,70.144 L265.045333,70.144 L265.045333,18.432 L265.216,18.432 Z M318.122667,0 L335.018667,0 L361.642667,70.144 L339.626667,70.144 L337.237333,63.8293333 L315.904,63.8293333 L313.514667,70.144 L291.498667,70.144 L318.122667,0 Z M331.264,48.4693333 L326.485333,36.1813333 L321.706667,48.4693333 L331.264,48.4693333 Z M363.349333,0 L390.826667,0 C394.410667,0 397.482667,0.341333333 400.384,1.19466667 C403.285333,2.048 405.845333,3.24266667 407.893333,4.77866667 C409.941333,6.31466667 411.648,8.36266667 412.672,10.752 C413.866667,13.1413333 414.378667,15.872 414.378667,18.944 C414.378667,21.1626667 414.037333,23.04 413.525333,24.7466667 C413.013333,26.2826667 412.330667,27.648 411.818667,28.672 C410.965333,29.8666667 410.112,31.0613333 409.258667,31.744 C410.794667,32.768 412.16,33.9626667 413.525333,35.4986667 C414.549333,36.864 415.573333,38.5706667 416.426667,40.6186667 C417.28,42.6666667 417.792,45.2266667 417.792,48.128 C417.792,51.5413333 417.28,54.6133333 416.085333,57.344 C414.890667,60.0746667 413.184,62.464 410.965333,64.3413333 C408.746667,66.2186667 406.016,67.7546667 402.944,68.7786667 C399.701333,69.8026667 396.117333,70.3146667 392.192,70.3146667 L363.52,70.3146667 L363.52,0 L363.349333,0 Z M392.874667,21.3333333 C392.874667,18.0906667 391.168,16.5546667 387.584,16.5546667 L385.024,16.5546667 L385.024,26.2826667 L387.584,26.2826667 C391.168,26.2826667 392.874667,24.576 392.874667,21.3333333 L392.874667,21.3333333 L392.874667,21.3333333 Z M387.584,53.5893333 C392.874667,53.5893333 395.605333,51.5413333 395.605333,47.4453333 C395.605333,43.3493333 392.874667,41.3013333 387.584,41.3013333 L385.024,41.3013333 L385.024,53.5893333 L387.584,53.5893333 Z M423.765333,0 L447.146667,0 L447.146667,51.712 L466.432,51.712 L466.432,70.144 L423.765333,70.144 L423.765333,0 Z M469.845333,0 L511.146667,0 L511.146667,18.432 L492.202667,18.432 L492.202667,26.2826667 L510.805333,26.2826667 L510.805333,43.6906667 L492.202667,43.6906667 L492.202667,51.712 L512,51.712 L512,70.144 L469.845333,70.144 L469.845333,0 Z" fill="#FC4349"></path>
		<path d="M0,0 L23.7226667,0 L23.7226667,70.144 L0,70.144 L0,0 L0,0 Z M13.312,61.7813333 L13.312,8.36266667 L10.5813333,8.36266667 L10.5813333,61.7813333 L13.312,61.7813333 Z M31.0613333,0 L49.4933333,0 L67.7546667,26.9653333 L86.016,0 L104.618667,0 L104.618667,70.144 L82.0906667,70.144 L82.0906667,44.8853333 L67.7546667,65.8773333 L53.4186667,44.8853333 L53.4186667,70.144 L31.0613333,70.144 L31.0613333,0 Z M44.2026667,61.7813333 L44.2026667,13.4826667 L67.7546667,47.7866667 L91.3066667,13.4826667 L91.3066667,61.7813333 L94.0373333,61.7813333 L94.0373333,8.36266667 L91.3066667,8.36266667 L67.7546667,43.008 L44.2026667,8.36266667 L41.472,8.36266667 L41.472,61.7813333 L44.2026667,61.7813333 Z M111.786667,0 L130.389333,0 L148.48,26.9653333 L166.741333,0 L185.344,0 L185.344,70.144 L162.816,70.144 L162.816,44.8853333 L148.48,66.048 L134.144,45.056 L134.144,70.3146667 L111.786667,70.3146667 L111.786667,0 Z M124.928,61.7813333 L124.928,13.4826667 L148.48,47.7866667 L171.861333,13.4826667 L171.861333,61.7813333 L174.592,61.7813333 L174.592,8.36266667 L171.861333,8.36266667 L148.48,43.008 L124.928,8.36266667 L122.197333,8.36266667 L122.197333,61.7813333 L124.928,61.7813333 Z M219.477333,72.0213333 C215.04,72.0213333 211.114667,71.5093333 207.530667,70.3146667 C203.946667,69.12 200.874667,67.584 198.314667,65.1946667 C195.754667,62.976 193.877333,60.0746667 192.512,56.6613333 C191.146667,53.248 190.464,49.152 190.464,44.544 L190.464,0 L212.821333,0 L212.821333,43.6906667 C212.821333,46.08 213.333333,47.9573333 214.357333,49.3226667 C215.381333,50.688 217.088,51.2 219.477333,51.2 C221.866667,51.2 223.573333,50.5173333 224.597333,49.3226667 C225.621333,47.9573333 226.133333,46.08 226.133333,43.6906667 L226.133333,0 L248.661333,0 L248.661333,44.544 C248.661333,49.152 247.978667,53.248 246.613333,56.6613333 C245.248,60.0746667 243.2,62.976 240.64,65.1946667 C238.08,67.4133333 235.008,69.12 231.424,70.3146667 C227.84,71.3386667 223.914667,72.0213333 219.477333,72.0213333 Z M219.477333,59.392 C208.896,59.392 203.776,54.272 203.776,43.8613333 L203.776,8.36266667 L201.045333,8.36266667 L201.045333,43.8613333 C201.045333,49.8346667 202.581333,54.272 205.824,57.344 C209.066667,60.416 213.674667,61.952 219.477333,61.952 C225.450667,61.952 230.058667,60.416 233.301333,57.344 C236.544,54.272 238.08,49.664 238.08,43.8613333 L238.08,8.36266667 L235.178667,8.36266667 L235.178667,43.8613333 C235.178667,54.1013333 230.058667,59.392 219.477333,59.392 Z M265.216,18.432 L252.245333,18.432 L252.245333,0 L301.226667,0 L301.226667,18.432 L288.256,18.432 L288.256,70.144 L265.045333,70.144 L265.045333,18.432 L265.216,18.432 Z M278.186667,61.7813333 L278.186667,10.9226667 L293.205333,10.9226667 L293.205333,8.36266667 L260.437333,8.36266667 L260.437333,10.9226667 L275.456,10.9226667 L275.456,61.7813333 L278.186667,61.7813333 Z M318.122667,0 L335.018667,0 L361.642667,70.144 L339.626667,70.144 L337.237333,63.8293333 L315.904,63.8293333 L313.514667,70.144 L291.498667,70.144 L318.122667,0 Z M307.2,61.7813333 L309.248,56.4906667 L343.893333,56.4906667 L345.941333,61.7813333 L348.842667,61.7813333 L328.533333,8.36266667 L324.608,8.36266667 L304.298667,61.7813333 L307.2,61.7813333 L307.2,61.7813333 Z M326.485333,10.9226667 L342.869333,53.9306667 L310.101333,53.9306667 L326.485333,10.9226667 L326.485333,10.9226667 Z M331.264,48.4693333 L326.485333,36.1813333 L321.706667,48.4693333 L331.264,48.4693333 Z M363.349333,0 L390.826667,0 C394.410667,0 397.482667,0.341333333 400.384,1.19466667 C403.285333,2.048 405.845333,3.24266667 407.893333,4.77866667 C409.941333,6.31466667 411.648,8.36266667 412.672,10.752 C413.866667,13.1413333 414.378667,15.872 414.378667,18.944 C414.378667,21.1626667 414.037333,23.04 413.525333,24.7466667 C413.013333,26.2826667 412.330667,27.648 411.818667,28.672 C410.965333,29.8666667 410.112,31.0613333 409.258667,31.744 C410.794667,32.768 412.16,33.9626667 413.525333,35.4986667 C414.549333,36.864 415.573333,38.5706667 416.426667,40.6186667 C417.28,42.6666667 417.792,45.2266667 417.792,48.128 C417.792,51.5413333 417.28,54.6133333 416.085333,57.344 C414.890667,60.0746667 413.184,62.464 410.965333,64.3413333 C408.746667,66.2186667 406.016,67.7546667 402.944,68.7786667 C399.701333,69.8026667 396.117333,70.3146667 392.192,70.3146667 L363.52,70.3146667 L363.52,0 L363.349333,0 Z M389.12,61.7813333 C395.264,61.7813333 399.872,60.416 402.773333,57.856 C405.674667,55.1253333 407.210667,51.712 407.210667,47.2746667 C407.210667,44.3733333 406.528,42.1546667 405.333333,40.448 C404.138667,38.7413333 402.773333,37.376 401.408,36.352 C399.701333,35.1573333 397.653333,34.4746667 395.605333,33.9626667 C397.312,33.4506667 398.848,32.768 400.213333,31.5733333 C401.408,30.72 402.432,29.3546667 403.456,27.8186667 C404.48,26.2826667 404.821333,24.2346667 404.821333,21.8453333 C404.821333,17.408 403.456,14.1653333 400.554667,11.776 C397.824,9.55733333 393.898667,8.36266667 389.12,8.36266667 L373.930667,8.36266667 L373.930667,61.7813333 L389.12,61.7813333 L389.12,61.7813333 Z M376.661333,32.5973333 L376.661333,10.9226667 L389.12,10.9226667 C393.728,10.9226667 396.970667,11.9466667 399.018667,13.9946667 C401.066667,16.0426667 402.090667,18.6026667 402.090667,21.8453333 C402.090667,25.088 401.066667,27.648 399.018667,29.696 C396.970667,31.744 393.728,32.768 389.12,32.768 L376.661333,32.768 L376.661333,32.5973333 L376.661333,32.5973333 Z M376.661333,59.2213333 L376.661333,35.1573333 L388.949333,35.1573333 C391.168,35.1573333 393.216,35.328 394.922667,35.84 C396.8,36.352 398.336,37.0346667 399.872,37.888 C401.237333,38.912 402.432,40.1066667 403.114667,41.6426667 C403.968,43.1786667 404.309333,45.056 404.309333,47.104 C404.309333,51.3706667 402.944,54.4426667 400.042667,56.32 C397.141333,58.1973333 393.386667,59.2213333 388.778667,59.2213333 L376.661333,59.2213333 L376.661333,59.2213333 Z M392.874667,21.3333333 C392.874667,18.0906667 391.168,16.5546667 387.584,16.5546667 L385.024,16.5546667 L385.024,26.2826667 L387.584,26.2826667 C391.168,26.2826667 392.874667,24.576 392.874667,21.3333333 L392.874667,21.3333333 L392.874667,21.3333333 Z M387.584,53.5893333 C392.874667,53.5893333 395.605333,51.5413333 395.605333,47.4453333 C395.605333,43.3493333 392.874667,41.3013333 387.584,41.3013333 L385.024,41.3013333 L385.024,53.5893333 L387.584,53.5893333 Z M423.765333,0 L447.146667,0 L447.146667,51.712 L466.432,51.712 L466.432,70.144 L423.765333,70.144 L423.765333,0 Z M460.629333,61.7813333 L460.629333,59.2213333 L437.077333,59.2213333 L437.077333,8.36266667 L434.346667,8.36266667 L434.346667,61.7813333 L460.629333,61.7813333 Z M469.845333,0 L511.146667,0 L511.146667,18.432 L492.202667,18.432 L492.202667,26.2826667 L510.805333,26.2826667 L510.805333,43.6906667 L492.202667,43.6906667 L492.202667,51.712 L512,51.712 L512,70.144 L469.845333,70.144 L469.845333,0 Z M504.149333,61.7813333 L504.149333,59.2213333 L483.157333,59.2213333 L483.157333,36.1813333 L503.125333,36.1813333 L503.125333,33.6213333 L483.157333,33.6213333 L483.157333,10.9226667 L504.149333,10.9226667 L504.149333,8.36266667 L480.426667,8.36266667 L480.426667,61.7813333 L504.149333,61.7813333 L504.149333,61.7813333 Z" fill="#2C3E50"></path>
	</g>
</svg>

<svg viewBox="0 0 512 73" xmlns="http://www.w3.org/2000/svg"><path fill="#FC4349" d="M0 0h23.72v70.144H-.01V0Zm31.06 0h18.43l18.26 26.96L86.01-.01h18.6V70.13H82.08V44.87l-14.34 20.99 -14.34-21v25.25H31.04V-.03Zm80.72 0h18.6l18.09 26.96L166.73-.01h18.6V70.13H162.8V44.87l-14.34 21.16 -14.34-21v25.25h-22.36V-.04Zm107.69 72.02c-4.44 0-8.37-.52-11.95-1.71 -3.59-1.2-6.66-2.74-9.22-5.12 -2.56-2.22-4.44-5.12-5.81-8.54 -1.37-3.42-2.05-7.51-2.05-12.12V-.02h22.35v43.69c0 2.38.51 4.26 1.53 5.63 1.02 1.36 2.73 1.87 5.12 1.87 2.38 0 4.09-.69 5.12-1.88 1.02-1.37 1.53-3.25 1.53-5.64V-.05h22.52V44.5c0 4.6-.69 8.7-2.05 12.11 -1.37 3.41-3.42 6.31-5.98 8.53 -2.56 2.21-5.64 3.92-9.22 5.12 -3.59 1.02-7.51 1.7-11.95 1.7Zm45.73-53.59h-12.98V-.01h48.98V18.42h-12.98V70.13H265V18.42h.17ZM318.1-.01h16.89l26.62 70.144h-22.02l-2.39-6.32h-21.34l-2.39 6.31h-22.02L318.07-.02Zm13.14 48.46l-4.78-12.29 -4.78 12.28h9.55ZM363.32-.02h27.47c3.58 0 6.65.34 9.55 1.19 2.9.85 5.46 2.048 7.5 3.58 2.04 1.53 3.75 3.58 4.77 5.97 1.19 2.38 1.7 5.12 1.7 8.19 0 2.21-.35 4.096-.86 5.8 -.52 1.53-1.2 2.9-1.71 3.92 -.86 1.19-1.71 2.38-2.56 3.07 1.53 1.02 2.9 2.21 4.26 3.75 1.02 1.36 2.04 3.07 2.9 5.12 .85 2.04 1.36 4.6 1.36 7.5 0 3.41-.52 6.48-1.71 9.21 -1.2 2.73-2.91 5.12-5.12 6.99 -2.22 1.87-4.95 3.41-8.03 4.43 -3.25 1.02-6.83 1.53-10.76 1.53H363.4V-.09h-.18Zm29.52 21.33c0-3.25-1.71-4.78-5.3-4.78h-2.56v9.72h2.56c3.58 0 5.29-1.71 5.29-4.95v0 0Zm-5.3 32.25c5.29 0 8.02-2.05 8.02-6.15 0-4.1-2.74-6.15-8.03-6.15h-2.56v12.28h2.56ZM423.72-.03h23.38V51.68h19.28v18.43h-42.67V-.04Zm46.08 0h41.3V18.4h-18.95v7.85h18.6v17.4h-18.61v8.02h19.79V70.1h-42.16V-.05Z"/><path fill="#2C3E50" d="M0 0h23.72v70.144H-.01V0v0Zm13.31 61.78V8.36h-2.74v53.41h2.73ZM31.05-.01h18.43l18.26 26.96L86-.02h18.6V70.12H82.07V44.86l-14.34 20.99 -14.34-21v25.25H31.03V-.04Zm13.14 61.78v-48.3l23.55 34.3 23.55-34.31v48.29h2.73V8.33h-2.74L67.72 42.97 44.16 8.32h-2.74v53.41h2.73ZM111.77-.02h18.6l18.09 26.96L166.72-.03h18.6v70.144h-22.53v-25.26l-14.34 21.16 -14.34-21v25.25h-22.36V-.06Zm13.14 61.78v-48.3l23.55 34.3 23.38-34.31v48.29h2.73V8.32h-2.74l-23.39 34.64 -23.56-34.65h-2.74v53.41h2.73ZM219.45 72c-4.44 0-8.37-.52-11.95-1.71 -3.59-1.2-6.66-2.74-9.22-5.12 -2.56-2.22-4.44-5.12-5.81-8.54 -1.37-3.42-2.05-7.51-2.05-12.12V-.04h22.35v43.69c0 2.38.51 4.26 1.53 5.63 1.02 1.36 2.73 1.87 5.12 1.87 2.38 0 4.09-.69 5.12-1.88 1.02-1.37 1.53-3.25 1.53-5.64V-.07h22.52V44.48c0 4.6-.69 8.7-2.05 12.11 -1.37 3.41-3.42 6.31-5.98 8.53 -2.56 2.21-5.64 3.92-9.22 5.12 -3.59 1.02-7.51 1.7-11.95 1.7Zm0-12.63c-10.59 0-15.71-5.12-15.71-15.54V8.33H201v35.49c0 5.97 1.53 10.41 4.77 13.48 3.24 3.07 7.85 4.6 13.65 4.6 5.97 0 10.58-1.54 13.82-4.61 3.24-3.08 4.77-7.68 4.77-13.49V8.3h-2.91v35.49c0 10.24-5.12 15.53-15.71 15.53Zm45.73-40.96H252.2V-.03h48.98V18.4H288.2v51.712h-23.22V18.402h.17Zm12.97 43.34V10.89h15.01V8.33h-32.77v2.56h15.01v50.85h2.73ZM318.08-.04h16.89L361.59 70.1h-22.02l-2.39-6.32h-21.34l-2.39 6.31h-22.02L318.05-.05Zm-10.93 61.78l2.04-5.3h34.64l2.04 5.29h2.9L328.46 8.31h-3.93l-20.31 53.41h2.9v0Zm19.28-50.86l16.38 43h-32.77l16.38-43.01v0Zm4.77 37.54l-4.78-12.29 -4.78 12.28h9.55ZM363.28-.05h27.47c3.58 0 6.65.34 9.55 1.19 2.9.85 5.46 2.048 7.5 3.58 2.04 1.53 3.75 3.58 4.77 5.97 1.19 2.38 1.7 5.12 1.7 8.19 0 2.21-.35 4.096-.86 5.8 -.52 1.53-1.2 2.9-1.71 3.92 -.86 1.19-1.71 2.38-2.56 3.07 1.53 1.02 2.9 2.21 4.26 3.75 1.02 1.36 2.04 3.07 2.9 5.12 .85 2.04 1.36 4.6 1.36 7.5 0 3.41-.52 6.48-1.71 9.21 -1.2 2.73-2.91 5.12-5.12 6.99 -2.22 1.87-4.95 3.41-8.03 4.43 -3.25 1.02-6.83 1.53-10.76 1.53h-28.68V-.12h-.18Zm25.77 61.78c6.14 0 10.75-1.37 13.65-3.93 2.9-2.74 4.43-6.15 4.43-10.59 0-2.91-.69-5.12-1.88-6.83 -1.2-1.71-2.56-3.08-3.93-4.1 -1.71-1.2-3.76-1.88-5.81-2.39 1.7-.52 3.24-1.2 4.6-2.39 1.19-.86 2.21-2.22 3.24-3.76 1.02-1.54 1.36-3.59 1.36-5.98 0-4.44-1.37-7.68-4.27-10.07 -2.74-2.22-6.66-3.42-11.44-3.42h-15.19v53.41h15.18v0Zm-12.46-29.19V10.86h12.45c4.6 0 7.85 1.02 9.89 3.07 2.04 2.04 3.07 4.6 3.07 7.85 0 3.24-1.03 5.8-3.08 7.85 -2.05 2.04-5.3 3.07-9.9 3.07h-12.46v-.18 0Zm0 26.62V35.09h12.28c2.21 0 4.26.17 5.97.68 1.87.51 3.41 1.19 4.94 2.04 1.36 1.02 2.56 2.21 3.24 3.75 .85 1.53 1.19 3.41 1.19 5.46 0 4.26-1.37 7.33-4.27 9.21 -2.91 1.87-6.66 2.9-11.27 2.9h-12.12v0Zm16.21-37.89c0-3.25-1.71-4.78-5.3-4.78h-2.56v9.72h2.56c3.58 0 5.29-1.71 5.29-4.95v0 0Zm-5.3 32.25c5.29 0 8.02-2.05 8.02-6.15 0-4.1-2.74-6.15-8.03-6.15h-2.56V53.5h2.56ZM423.68-.07h23.38V51.64h19.28v18.43h-42.67V-.08Zm36.86 61.78v-2.56h-23.56V8.29h-2.74V61.7h26.28Zm9.21-61.79h41.3V18.35H492.1v7.85h18.6v17.4h-18.61v8.02h19.79v18.43h-42.16V-.1Zm34.3 61.78v-2.56h-21V36.1h19.96v-2.56h-19.97v-22.7h20.99V8.28H480.3v53.41h23.72v0Z"/></svg>
